dist/images/icon/icoomoon/icomoon.svg

<?xml version="1.0" standalone="no"?>
<!DOCTYPE svg PUBLIC "-//W3C//DTD SVG 1.1//EN" "http://www.w3.org/Graphics/SVG/1.1/DTD/svg11.dtd" >
<svg xmlns="http://www.w3.org/2000/svg">
<metadata>Generated by IcoMoon</metadata>
<defs>
<font id="icomoon" horiz-adv-x="1024">
<font-face units-per-em="1024" ascent="960" descent="-64" />
<missing-glyph horiz-adv-x="1024" />
<glyph unicode="&#x20;" horiz-adv-x="512" d="" />
<glyph unicode="&#xe900;" glyph-name="burger" d="M0 675.556v113.778h1024v-113.778h-1024zM0 391.111h1024v113.778h-1024v-113.778zM0 106.667h1024v113.778h-1024v-113.778z" />
<glyph unicode="&#xe901;" glyph-name="eye" d="M512 797.091c-232.727 0-431.476-144.756-512-349.091 80.524-204.335 279.273-349.091 512-349.091s431.476 144.756 512 349.091c-80.524 204.335-279.273 349.091-512 349.091zM512 215.273c-128.465 0-232.727 104.262-232.727 232.727s104.262 232.727 232.727 232.727c128.465 0 232.727-104.262 232.727-232.727s-104.262-232.727-232.727-232.727zM372.364 448c0 77.265 62.371 139.636 139.636 139.636s139.636-62.371 139.636-139.636c0-77.265-62.371-139.636-139.636-139.636s-139.636 62.371-139.636 139.636z" />
<glyph unicode="&#xe902;" glyph-name="fill" d="M682.667 874.667h85.333v-85.333h42.667c46.933 0 85.333-38.4 85.333-85.333v-597.333c0-46.933-38.4-85.333-85.333-85.333h-597.333c-47.36 0-85.333 38.4-85.333 85.333l0.427 597.333c0 46.933 37.547 85.333 84.907 85.333h42.667v85.333h85.333v-85.333h341.333v85.333zM725.333 405.333v-213.333h-213.333v213.333h213.333zM213.333 106.667h597.333v469.333h-597.333v-469.333z" />
<glyph unicode="&#xe903;" d="M930.367 531.562h-34.367v1.771h-384v-170.667h241.129c-35.18-99.351-129.707-170.667-241.129-170.667-141.376 0-256 114.625-256 256s114.624 256 256 256c65.257 0 124.626-24.619 169.836-64.832l120.678 120.683c-76.203 71.018-178.13 114.816-290.514 114.816-235.627 0-426.667-191.040-426.667-426.667s191.040-426.667 426.667-426.667c235.628 0 426.667 191.039 426.667 426.667 0 28.608-2.947 56.533-8.3 83.562z" />
<glyph unicode="&#xe904;" d="M134.528 646.592l140.181-102.806c37.931 93.909 129.792 160.213 237.291 160.213 65.257 0 124.626-24.619 169.836-64.832l120.678 120.682c-76.203 71.019-178.13 114.816-290.514 114.816-163.883 0-306.005-92.522-377.472-228.074z" />
<glyph unicode="&#xe905;" d="M512.007 21.333c110.21 0 210.346 42.177 286.059 110.763l-132.056 111.741c-44.277-33.673-98.377-51.883-154.003-51.837-110.976 0-205.206 70.764-240.704 169.512l-139.136-107.196c70.613-138.177 214.016-232.983 379.84-232.983z" />
<glyph unicode="&#xe906;" d="M930.367 531.562h-34.367v1.771h-384v-170.667h241.129c-16.828-47.286-47.138-88.599-87.188-118.847l0.063 0.040 132.056-111.741c-9.347-8.494 140.607 102.548 140.607 315.881 0 28.608-2.947 56.533-8.3 83.562z" />
<glyph unicode="&#xe907;" glyph-name="google" d="M1014.864 550.202h-492.046c0-51.171 0-153.513-0.314-204.684h285.124c-10.92-51.171-49.664-122.812-104.398-158.886-0.053 0.051-0.105-0.307-0.209-0.256-72.771-48.048-168.807-58.953-240.115-44.624-111.771 22.213-200.226 103.266-236.141 206.223 0.208 0.154 0.366 1.586 0.522 1.689-22.48 63.862-22.48 149.369 0 200.539h-0.052c28.962 94.053 120.083 179.867 232.011 203.355 90.023 19.087 191.601-1.586 266.306-71.486 9.934 9.722 137.495 134.273 147.062 144.405-255.226 231.14-663.886 149.829-816.801-148.653h-0.052c0 0 0.052 0-0.261-0.562-75.647-146.606-72.51-319.36 0.523-458.958-0.209-0.154-0.366-0.249-0.523-0.402 66.184-128.446 186.634-226.948 331.759-264.455 154.169-40.426 350.37-12.793 481.801 106.079 0.051-0.051 0.102-0.102 0.154-0.154 111.353 100.293 180.677 271.154 145.649 490.832z" />
<glyph unicode="&#xe908;" glyph-name="heart" d="M494.917 53.983l-70.563 58.769c-250.616 207.917-416.071 345.043-416.071 513.336 0 137.127 117.765 244.87 267.648 244.87 84.674 0 165.942-36.063 218.986-93.050 53.043 56.988 134.309 93.050 218.985 93.050 149.882 0 267.647-107.743 267.647-244.87 0-168.292-165.456-305.419-416.073-513.781l-70.558-58.323z" />
<glyph unicode="&#xe909;" glyph-name="house" d="M531.568 796.315c-20.582 20.563-38.842 5.821-43.576 1.263l-312.003-312.003c-40.999-41.016 0-43.497 0-43.497h3.918c6.172-0.205 30.51-3.375 30.51-40.839v-377.405c0.783-20.131 8.395-73.747 67.224-73.747h452.030c66.555 0 69.497 69.655 69.609 80.24v366.881c0 46.95 38.442 44.888 38.442 44.888h8.183c5.921 0.047 37.502 2.062-0.908 40.55l-313.428 313.667zM1003.362 496.75l-427.036 432.859c-0.256 0.256-0.4 0.368-0.656 0.624-54.016 54.735-102.884 20.004-118.921 5.501l-438.632-432.763c0 0-33.74-31.451-9.13-56.381l3.006-3.039c0 0 20.148-23.361 55.566 11.594l409.225 403.723c8.522 7.963 40.969 33.452 76.13-2.159l402.19-407.657c0 0 32.428-33.531 54.942-11.325l8.955 8.797c0 0.033 0 0.065 0 0.065 17.236 18.339-15.639 50.161-15.639 50.161z" />
<glyph unicode="&#xe90a;" glyph-name="linkedin" d="M1024-64h-196.922v358.611c0 98.374-41.702 153.249-116.48 153.249-81.38 0-129.676-57.181-129.676-153.249v-358.611h-196.923v666.084h196.923v-74.909c0 0 61.784 112.824 201.010 112.824 139.27 0 242.067-88.435 242.067-271.455 0-182.971 0-432.545 0-432.545zM96.020 768c-53.043 0-96.020 42.996-96.020 96.019 0 52.985 42.977 95.981 96.020 95.981 53.004 0 95.98-42.996 95.98-95.981 0.039-53.023-42.977-96.019-95.98-96.019zM0-64h192v640h-192v-640z" />
<glyph unicode="&#xe90b;" d="M967.481-64.006c31.208 0 56.519 25.305 56.519 56.519v910.971c0 31.216-25.311 56.516-56.519 56.516h-910.965c-31.22 0-56.516-25.3-56.516-56.516v-910.971c0-31.214 25.296-56.519 56.516-56.519h910.965z" />
<glyph unicode="&#xe90c;" d="M706.536-64.006v396.547h133.108l19.926 154.541h-153.034v98.672c0 44.744 12.427 75.236 76.589 75.236l81.842 0.036v138.22c-14.161 1.884-62.741 6.092-119.248 6.092-117.995 0-198.771-72.020-198.771-204.284v-113.972h-133.448v-154.541h133.448v-396.547h159.588z" />
<glyph unicode="&#xe90d;" glyph-name="mask" d="M512 929.722c-265.911 0-481.722-215.811-481.722-481.722s215.811-481.719 481.722-481.719c265.91 0 481.719 215.81 481.719 481.719 0 265.911-215.81 481.722-481.719 481.722zM512 785.206c79.964 0 144.516-64.55 144.516-144.516s-64.552-144.515-144.516-144.515c-79.968 0-144.516 64.548-144.516 144.515s64.548 144.516 144.516 144.516zM222.966 256.277c1.445 95.863 192.688 148.371 289.034 148.371 95.86 0 287.585-52.508 289.032-148.371-62.144-93.452-168.603-155.113-289.032-155.113-120.432 0-226.892 61.661-289.034 155.113z" />
<glyph unicode="&#xe90e;" glyph-name="paw" d="M311.633 910.505c57.539 8.29 118.491-54.613 136.046-141.409 17.554-86.309-14.141-163.352-71.68-172.13-57.051-8.777-118.491 54.126-136.533 140.922-18.042 86.309 14.629 163.352 72.168 172.617zM660.28 910.505c58.027-9.265 90.21-86.308 73.143-172.617-18.53-86.796-79.482-149.699-137.021-140.922-58.027 8.777-89.722 85.821-71.68 172.13 17.554 86.796 78.507 149.699 135.558 141.409zM50.757 686.2c55.589 23.893 131.17-19.505 170.667-95.086 37.059-77.044 24.381-157.989-30.72-181.88-55.101-23.893-130.194 19.015-168.716 95.571s-24.869 157.989 28.769 181.394zM928.471 686.2c53.638-23.406 67.291-104.838 28.77-181.394s-113.615-119.465-168.716-95.571c-55.101 23.891-67.779 104.836-30.72 181.88 39.497 75.581 115.078 118.979 170.667 95.086zM847.038 160.549c1.95-45.836-33.158-96.549-75.093-115.566-87.284-39.985-190.659 42.91-287.694 42.91s-201.387-86.309-287.208-42.91c-48.762 23.893-82.408 87.284-76.069 139.947 8.777 72.655 96.061 111.665 147.749 164.815 68.754 68.754 117.516 197.971 215.528 197.971 97.523 0 149.21-127.267 215.039-197.971 54.126-59.49 144.335-109.714 147.749-189.196z" />
<glyph unicode="&#xe90f;" glyph-name="twitter" d="M322.048 0c386.406 0 597.76 344.755 597.76 643.694 0 9.814 0 19.572-0.614 29.276 41.114 31.978 76.595 71.675 104.806 117.106-38.298-18.305-79.002-30.324-120.627-35.617 43.827 28.284 76.646 72.723 92.365 125.155-41.267-26.354-86.374-44.935-133.427-54.914-79.565 91.082-212.634 95.493-297.267 9.814-54.528-55.245-77.722-137.616-60.774-216.182-168.909 9.153-326.298 95.052-432.998 236.361-55.757-103.377-27.238-235.59 65.075-301.971-33.434 1.048-66.15 10.751-95.386 28.284v-2.867c0.051-107.677 70.554-200.413 168.55-221.751-30.925-9.097-63.386-10.42-94.822-3.859 27.494-92.185 106.394-155.313 196.25-157.131-74.394-62.963-166.298-97.152-260.915-97.037-16.691 0.051-33.382 1.101-50.022 3.251 96.102-66.381 207.872-101.613 322.048-101.446z" />
</font></defs></svg>

<svg xmlns="http://www.w3.org/2000/svg"><defs><font id="icomoon" horiz-adv-x="1024"><font-face units-per-em="1024" ascent="960" descent="-64"/><glyph horiz-adv-x="512"/><glyph unicode="" glyph-name="burger" d="M0 675.556v113.778h1024V675.556H0zm0-284.445h1024v113.778H0V391.111zm0-284.444h1024v113.778H0V106.667z"/><glyph unicode="" glyph-name="eye" d="M512 797.091C279.273 797.091 80.524 652.335 0 448 80.524 243.665 279.273 98.909 512 98.909S943.476 243.665 1024 448c-80.524 204.335-279.273 349.091-512 349.091zm0-581.818c-128.465 0-232.727 104.262-232.727 232.727S383.535 680.727 512 680.727 744.727 576.465 744.727 448 640.465 215.273 512 215.273zM372.364 448c0 77.265 62.371 139.636 139.636 139.636S651.636 525.265 651.636 448c0-77.265-62.371-139.636-139.636-139.636S372.364 370.735 372.364 448z"/><glyph unicode="" glyph-name="fill" d="M682.667 874.667H768v-85.333h42.667c46.933 0 85.333-38.4 85.333-85.333V106.668c0-46.933-38.4-85.333-85.333-85.333H213.334c-47.36 0-85.333 38.4-85.333 85.333l.427 597.333c0 46.933 37.547 85.333 84.907 85.333h42.667v85.333h85.333v-85.333h341.333v85.333zm42.666-469.334V192H512v213.333h213.333zm-512-298.666h597.333V576H213.333V106.667z"/><glyph unicode="" d="M930.367 531.562H896v1.771H512V362.666h241.129C717.949 263.315 623.422 191.999 512 191.999c-141.376 0-256 114.625-256 256s114.624 256 256 256c65.257 0 124.626-24.619 169.836-64.832L802.514 759.85C726.311 830.868 624.384 874.666 512 874.666c-235.627 0-426.667-191.04-426.667-426.667S276.373 21.332 512 21.332c235.628 0 426.667 191.039 426.667 426.667 0 28.608-2.947 56.533-8.3 83.562z"/><glyph unicode="" d="M134.528 646.592l140.181-102.806C312.64 637.695 404.501 703.999 512 703.999c65.257 0 124.626-24.619 169.836-64.832l120.678 120.682C726.311 830.868 624.384 874.665 512 874.665c-163.883 0-306.005-92.522-377.472-228.074z"/><glyph unicode="" d="M512.007 21.333c110.21 0 210.346 42.177 286.059 110.763L666.01 243.837A254.054 254.054 0 0 0 512.007 192c-110.976 0-205.206 70.764-240.704 169.512L132.167 254.316C202.78 116.139 346.183 21.333 512.007 21.333z"/><glyph unicode="" d="M930.367 531.562H896v1.771H512V362.666h241.129a256.845 256.845 0 0 0-87.188-118.847l.063.04L798.06 132.118c-9.347-8.494 140.607 102.548 140.607 315.881 0 28.608-2.947 56.533-8.3 83.562z"/><glyph unicode="" glyph-name="google" d="M1014.864 550.202H522.818c0-51.171 0-153.513-.314-204.684h285.124c-10.92-51.171-49.664-122.812-104.398-158.886-.053.051-.105-.307-.209-.256-72.771-48.048-168.807-58.953-240.115-44.624-111.771 22.213-200.226 103.266-236.141 206.223.208.154.366 1.586.522 1.689-22.48 63.862-22.48 149.369 0 200.539h-.052c28.962 94.053 120.083 179.867 232.011 203.355 90.023 19.087 191.601-1.586 266.306-71.486 9.934 9.722 137.495 134.273 147.062 144.405-255.226 231.14-663.886 149.829-816.801-148.653h-.052s.052 0-.261-.562c-75.647-146.606-72.51-319.36.523-458.958-.209-.154-.366-.249-.523-.402C121.684 89.456 242.134-9.046 387.259-46.553 541.428-86.979 737.629-59.346 869.06 59.526l.154-.154c111.353 100.293 180.677 271.154 145.649 490.832z"/><glyph unicode="" glyph-name="heart" d="M494.917 53.983l-70.563 58.769C173.738 320.669 8.283 457.795 8.283 626.088c0 137.127 117.765 244.87 267.648 244.87 84.674 0 165.942-36.063 218.986-93.05 53.043 56.988 134.309 93.05 218.985 93.05 149.882 0 267.647-107.743 267.647-244.87 0-168.292-165.456-305.419-416.073-513.781l-70.558-58.323z"/><glyph unicode="" glyph-name="house" d="M531.568 796.315c-20.582 20.563-38.842 5.821-43.576 1.263L175.989 485.575c-40.999-41.016 0-43.497 0-43.497h3.918c6.172-.205 30.51-3.375 30.51-40.839V23.834c.783-20.131 8.395-73.747 67.224-73.747h452.03c66.555 0 69.497 69.655 69.609 80.24v366.881c0 46.95 38.442 44.888 38.442 44.888h8.183c5.921.047 37.502 2.062-.908 40.55L531.569 796.313zm471.794-299.565L576.326 929.609c-.256.256-.4.368-.656.624-54.016 54.735-102.884 20.004-118.921 5.501L18.117 502.971s-33.74-31.451-9.13-56.381l3.006-3.039s20.148-23.361 55.566 11.594l409.225 403.723c8.522 7.963 40.969 33.452 76.13-2.159l402.19-407.657s32.428-33.531 54.942-11.325l8.955 8.797v.065c17.236 18.339-15.639 50.161-15.639 50.161z"/><glyph unicode="" glyph-name="linkedin" d="M1024-64H827.078v358.611c0 98.374-41.702 153.249-116.48 153.249-81.38 0-129.676-57.181-129.676-153.249V-64H383.999v666.084h196.923v-74.909s61.784 112.824 201.01 112.824c139.27 0 242.067-88.435 242.067-271.455V-64.001zM96.02 768C42.977 768 0 810.996 0 864.019 0 917.004 42.977 960 96.02 960c53.004 0 95.98-42.996 95.98-95.981.039-53.023-42.977-96.019-95.98-96.019zM0-64h192v640H0V-64z"/><glyph unicode="" d="M967.481-64.006c31.208 0 56.519 25.305 56.519 56.519v910.971C1024 934.7 998.689 960 967.481 960H56.516C25.296 960 0 934.7 0 903.484V-7.487c0-31.214 25.296-56.519 56.516-56.519h910.965z"/><glyph unicode="" d="M706.536-64.006v396.547h133.108l19.926 154.541H706.536v98.672c0 44.744 12.427 75.236 76.589 75.236l81.842.036v138.22c-14.161 1.884-62.741 6.092-119.248 6.092-117.995 0-198.771-72.02-198.771-204.284V487.082H413.5V332.541h133.448V-64.006h159.588z"/><glyph unicode="" glyph-name="mask" d="M512 929.722C246.089 929.722 30.278 713.911 30.278 448S246.089-33.719 512-33.719c265.91 0 481.719 215.81 481.719 481.719 0 265.911-215.81 481.722-481.719 481.722zm0-144.516c79.964 0 144.516-64.55 144.516-144.516S591.964 496.175 512 496.175c-79.968 0-144.516 64.548-144.516 144.515S432.032 785.206 512 785.206zM222.966 256.277C224.411 352.14 415.654 404.648 512 404.648c95.86 0 287.585-52.508 289.032-148.371C738.888 162.825 632.429 101.164 512 101.164c-120.432 0-226.892 61.661-289.034 155.113z"/><glyph unicode="" glyph-name="paw" d="M311.633 910.505c57.539 8.29 118.491-54.613 136.046-141.409 17.554-86.309-14.141-163.352-71.68-172.13-57.051-8.777-118.491 54.126-136.533 140.922-18.042 86.309 14.629 163.352 72.168 172.617zm348.647 0c58.027-9.265 90.21-86.308 73.143-172.617-18.53-86.796-79.482-149.699-137.021-140.922-58.027 8.777-89.722 85.821-71.68 172.13 17.554 86.796 78.507 149.699 135.558 141.409zM50.757 686.2c55.589 23.893 131.17-19.505 170.667-95.086 37.059-77.044 24.381-157.989-30.72-181.88-55.101-23.893-130.194 19.015-168.716 95.571S-2.881 662.794 50.757 686.199zm877.714 0c53.638-23.406 67.291-104.838 28.77-181.394s-113.615-119.465-168.716-95.571c-55.101 23.891-67.779 104.836-30.72 181.88 39.497 75.581 115.078 118.979 170.667 95.086zm-81.433-525.651c1.95-45.836-33.158-96.549-75.093-115.566-87.284-39.985-190.659 42.91-287.694 42.91S282.864 1.584 197.043 44.983c-48.762 23.893-82.408 87.284-76.069 139.947 8.777 72.655 96.061 111.665 147.749 164.815 68.754 68.754 117.516 197.971 215.528 197.971 97.523 0 149.21-127.267 215.039-197.971 54.126-59.49 144.335-109.714 147.749-189.196z"/><glyph unicode="" glyph-name="twitter" d="M322.048 0c386.406 0 597.76 344.755 597.76 643.694 0 9.814 0 19.572-.614 29.276 41.114 31.978 76.595 71.675 104.806 117.106-38.298-18.305-79.002-30.324-120.627-35.617 43.827 28.284 76.646 72.723 92.365 125.155-41.267-26.354-86.374-44.935-133.427-54.914-79.565 91.082-212.634 95.493-297.267 9.814-54.528-55.245-77.722-137.616-60.774-216.182-168.909 9.153-326.298 95.052-432.998 236.361-55.757-103.377-27.238-235.59 65.075-301.971-33.434 1.048-66.15 10.751-95.386 28.284v-2.867c.051-107.677 70.554-200.413 168.55-221.751-30.925-9.097-63.386-10.42-94.822-3.859 27.494-92.185 106.394-155.313 196.25-157.131-74.394-62.963-166.298-97.152-260.915-97.037-16.691.051-33.382 1.101-50.022 3.251C96.104 35.231 207.874-.001 322.05.166z"/></font></defs></svg>
